Flat-Remix-Dark/apps/scalable/gnome-twofactorauth.svg

<svg xmlns="http://www.w3.org/2000/svg" xmlns:xlink="http://www.w3.org/1999/xlink" width="384pt" height="384pt" version="1.1" viewBox="0 0 384 384">
 <defs>
  <filter id="alpha" width="100%" height="100%" x="0%" y="0%" filterUnits="objectBoundingBox">
   <feColorMatrix in="SourceGraphic" type="matrix" values="0 0 0 0 1 0 0 0 0 1 0 0 0 0 1 0 0 0 1 0"/>
  </filter>
  <mask id="mask0">
   <g filter="url(#alpha)">
    <rect width="384" height="384" x="0" y="0" style="fill:rgb(0%,0%,0%);fill-opacity:0.2"/>
   </g>
  </mask>
  <clipPath id="clip1">
   <rect width="384" height="384" x="0" y="0"/>
  </clipPath>
  <g id="surface5" clip-path="url(#clip1)">
   <path style="fill:rgb(0%,0%,0%)" d="M 312 240 C 312 173.726562 258.273438 120 192 120 C 125.726562 120 72 173.726562 72 240 C 72 306.273438 125.726562 360 192 360 C 258.273438 360 312 306.273438 312 240 Z M 312 240"/>
  </g>
  <mask id="mask3">
   <g filter="url(#alpha)">
    <rect width="384" height="384" x="0" y="0" style="fill:rgb(0%,0%,0%);fill-opacity:0.2"/>
   </g>
  </mask>
  <clipPath id="clip4">
   <rect width="384" height="384" x="0" y="0"/>
  </clipPath>
  <g id="surface14" clip-path="url(#clip4)">
   <path style="fill:rgb(0%,0%,0%)" d="M 238.667969 193.332031 L 219.578125 199.695312 L 202.160156 205.511719 C 189.527344 201.78125 175.871094 205.246094 166.542969 214.542969 C 152.484375 228.601562 152.484375 251.398438 166.542969 265.457031 C 180.601562 279.515625 203.398438 279.515625 217.457031 265.457031 C 226.777344 256.125 230.25 242.4375 226.503906 229.792969 L 232.304688 212.421875 Z M 238.667969 193.332031"/>
  </g>
 </defs>
 <g transform="matrix(1.0167696,0,0,1.0167696,-3.2197632,-5.2870622)">
  <path d="m 192,28.066406 c -53.19128,0 -96.121583,42.930296 -96.121583,96.121574 V 309.56983 H 123.34423 V 124.18798 c 0,-38.094707 30.56106,-68.657218 68.65577,-68.657218 38.09804,0 68.66015,30.562511 68.66016,68.657218 v 185.38185 h 27.46288 V 124.18798 C 288.12304,70.996702 245.19435,28.066406 192,28.066406 Z" style="fill:#333333"/>
  <g>
   <use width="100%" height="100%" x="0" y="0" mask="url(#mask0)" xlink:href="#surface5"/>
   <path d="m 312,234 c 0,-66.27344 -53.72656,-120 -120,-120 -66.27344,0 -120,53.72656 -120,120 0,66.27344 53.72656,120 120,120 66.27344,0 120,-53.72656 120,-120 z m 0,0" style="fill:#ededed"/>
   <path d="m 276,234 c 0,-46.39063 -37.60938,-84 -84,-84 -46.39063,0 -84,37.60937 -84,84 0,46.39062 37.60937,84 84,84 46.39062,0 84,-37.60938 84,-84 z m 0,0" style="fill:#4a4a4a"/>
   <use width="100%" height="100%" x="0" y="0" mask="url(#mask3)" xlink:href="#surface14"/>
   <path d="m 238.66797,187.33203 -19.08985,6.36328 -17.41796,5.81641 c -12.63282,-3.73047 -26.28907,-0.26563 -35.61719,9.03125 -14.0586,14.05859 -14.0586,36.85547 0,50.91406 14.05859,14.05859 36.85547,14.05859 50.91406,0 9.32031,-9.33203 12.79297,-23.01953 9.04688,-35.66406 l 5.80078,-17.3711 z m 0,0" style="fill:#f54545"/>
  </g>
  <path d="m 192,28.066406 c -53.19129,0 -96.121583,42.930303 -96.121583,96.121574 v 7.5 c 0,-53.19127 42.930293,-96.121574 96.121583,-96.121574 53.19434,0 96.12304,42.930304 96.12304,96.121574 v -7.5 c 0,-53.191271 -42.9287,-96.121574 -96.12304,-96.121574 z" style="opacity:0.3;fill:#e5e5e5"/>
 </g>
</svg>

<svg xmlns="http://www.w3.org/2000/svg" xmlns:xlink="http://www.w3.org/1999/xlink" width="384pt" height="384pt" version="1.1" viewBox="0 0 384 384">
 <defs>
  <filter id="alpha" width="100%" height="100%" x="0%" y="0%" filterUnits="objectBoundingBox">
   <feColorMatrix in="SourceGraphic" type="matrix" values="0 0 0 0 1 0 0 0 0 1 0 0 0 0 1 0 0 0 1 0"/>
  </filter>
  <mask id="mask0">
   <g filter="url(#alpha)">
    <rect width="384" height="384" x="0" y="0" style="fill:rgb(0%,0%,0%);fill-opacity:0.2"/>
   </g>
  </mask>
  <clipPath id="clip1">
   <rect width="384" height="384" x="0" y="0"/>
  </clipPath>
  <g id="surface5" clip-path="url(#clip1)">
   <path style="fill:rgb(0%,0%,0%)" d="M 312 240 C 312 173.726562 258.273438 120 192 120 C 125.726562 120 72 173.726562 72 240 C 72 306.273438 125.726562 360 192 360 C 258.273438 360 312 306.273438 312 240 Z M 312 240"/>
  </g>
  <mask id="mask1">
   <g filter="url(#alpha)">
    <rect width="384" height="384" x="0" y="0" style="fill:rgb(0%,0%,0%);fill-opacity:0.2"/>
   </g>
  </mask>
  <clipPath id="clip2">
   <rect width="384" height="384" x="0" y="0"/>
  </clipPath>
  <g id="surface8" clip-path="url(#clip2)">
   <path style="fill:rgb(0%,0%,0%)" d="M 192 36 C 116.398438 36 107.996094 103.765625 108 180 L 144 180 C 143.109375 103.765625 160.382812 72 192 72 C 223.617188 72 240.882812 103.765625 240 180 L 276 180 C 275.996094 103.765625 267.597656 36 192 36 Z M 192 36"/>
  </g>
  <mask id="mask2">
   <g filter="url(#alpha)">
    <rect width="384" height="384" x="0" y="0" style="fill:rgb(0%,0%,0%);fill-opacity:0.2"/>
   </g>
  </mask>
  <clipPath id="clip3">
   <rect width="384" height="384" x="0" y="0"/>
  </clipPath>
  <g id="surface11" clip-path="url(#clip3)">
   <path style="fill:rgb(100%,100%,100%)" d="M 192 30 C 116.398438 30 107.996094 97.765625 108 174 L 108.046875 174 C 108.515625 100.257812 118.398438 36 192 36 C 265.597656 36 275.476562 100.257812 275.953125 174 L 276 174 C 275.996094 97.765625 267.597656 30 192 30 Z M 192 30"/>
  </g>
  <mask id="mask3">
   <g filter="url(#alpha)">
    <rect width="384" height="384" x="0" y="0" style="fill:rgb(0%,0%,0%);fill-opacity:0.2"/>
   </g>
  </mask>
  <clipPath id="clip4">
   <rect width="384" height="384" x="0" y="0"/>
  </clipPath>
  <g id="surface14" clip-path="url(#clip4)">
   <path style="fill:rgb(0%,0%,0%)" d="M 238.667969 193.332031 L 219.578125 199.695312 L 202.160156 205.511719 C 189.527344 201.78125 175.871094 205.246094 166.542969 214.542969 C 152.484375 228.601562 152.484375 251.398438 166.542969 265.457031 C 180.601562 279.515625 203.398438 279.515625 217.457031 265.457031 C 226.777344 256.125 230.25 242.4375 226.503906 229.792969 L 232.304688 212.421875 Z M 238.667969 193.332031"/>
  </g>
 </defs>
 <g>
  <use mask="url(#mask0)" xlink:href="#surface5"/>
  <use mask="url(#mask1)" xlink:href="#surface8"/>
  <path style="fill:rgb(71.764706%,76.470588%,80.392157%)" d="M 192 30 C 116.398438 30 107.996094 97.765625 108 174 L 144 174 C 143.109375 97.765625 160.382812 66 192 66 C 223.617188 66 240.882812 97.765625 240 174 L 276 174 C 275.996094 97.765625 267.597656 30 192 30 Z M 192 30"/>
  <use mask="url(#mask2)" xlink:href="#surface11"/>
  <path style="fill:rgb(64.705882%,64.705882%,64.705882%)" d="M 312 234 C 312 167.726562 258.273438 114 192 114 C 125.726562 114 72 167.726562 72 234 C 72 300.273438 125.726562 354 192 354 C 258.273438 354 312 300.273438 312 234 Z M 312 234"/>
  <path style="fill:rgb(29.803922%,29.803922%,29.803922%)" d="M 276 234 C 276 187.609375 238.390625 150 192 150 C 145.609375 150 108 187.609375 108 234 C 108 280.390625 145.609375 318 192 318 C 238.390625 318 276 280.390625 276 234 Z M 276 234"/>
  <use mask="url(#mask3)" xlink:href="#surface14"/>
  <path style="fill:rgb(96.470588%,27.843137%,27.843137%)" d="M 238.667969 187.332031 L 219.578125 193.695312 L 202.160156 199.511719 C 189.527344 195.78125 175.871094 199.246094 166.542969 208.542969 C 152.484375 222.601562 152.484375 245.398438 166.542969 259.457031 C 180.601562 273.515625 203.398438 273.515625 217.457031 259.457031 C 226.777344 250.125 230.25 236.4375 226.503906 223.792969 L 232.304688 206.421875 Z M 238.667969 187.332031"/>
 </g>
</svg>
